packages/components/src/telekom/icons/weather/thunder-snow/default.svg

<?xml version="1.0" encoding="UTF-8"?>
<svg width="24px" height="24px" viewBox="0 0 24 24" version="1.1" xmlns="http://www.w3.org/2000/svg" xmlns:xlink="http://www.w3.org/1999/xlink">
    <title>icon/weather/thunder-snow/default</title>
    <g id="icon/weather/thunder-snow/default" stroke="none" stroke-width="1" fill="none" fill-rule="evenodd">
        <path d="M11.262,13.5005 L7.765,13.5005 L4.4385,19.4955 L6.832,19.4955 L4.5715,22.833 C4.444,23.0215 4.683,23.241 4.86,23.098 L11.1685,18.0005 L8.057,18.0005 L11.262,13.5005 Z M15.8505,13.2775 L17.1495,14.0275 L16.299,15.5005 L18,15.5005 L18,16.9955 L16.296,16.9955 L17.1495,18.4735 L15.8505,19.2235 L15,17.75 L14.1495,19.2235 L12.8505,18.4735 L13.704,16.9955 L12,16.9955 L12,15.5005 L13.701,15.5005 L12.8505,14.0275 L14.1495,13.2775 L15,14.7505 L15.8505,13.2775 Z M13.5115,0.5645 C16.7275,0.5645 19.5605,2.5685 20.661,5.584 C22.548,6.578 23.75,8.555 23.7495003,10.7115 C23.7495003,13.2966094 22.0546113,15.4856816 19.7267202,16.2259221 L19.4995,16.293 L19.4995,14.7185 C21.1035,14.1045 22.2495,12.542 22.2495,10.711 C22.2495,9.10308696 21.3482902,7.62921172 19.9361892,6.89804397 L19.7405,6.803 L19.4375,6.665 L19.3365,6.3475 C18.521,3.7855 16.18,2.064 13.5115,2.064 C12.0911875,2.064 10.7218516,2.56453711 9.62431738,3.47868201 L9.4085,3.667 L9.08,3.968 L8.658,3.8225 C8.3185,3.7055 7.9695,3.646 7.6215,3.646 C6.2485,3.646 5.074,4.52 4.615,5.746 C4.41375,6.2843 4.398945,6.741505 4.415549,7.115557 L4.442,7.5505 L3.9765,7.76 C2.624,8.3685 1.75,9.725 1.75,11.2155 C1.75,13.14255 3.18530667,14.7341344 5.03338859,14.9668186 L5.226,14.986 L4.446,16.393 C2.0545,15.9005 0.25,13.766 0.25,11.2155 C0.25,9.3035 1.282,7.5495 2.917,6.6175 C3.0565,4.128 5.1135,2.146 7.6215,2.146 C7.9905,2.146 8.3585,2.191 8.7215,2.2795 C10.0785,1.1705 11.7635,0.5645 13.5115,0.5645 Z" id="Shape" fill="#262626" fill-rule="nonzero"></path>
    </g>
</svg>

<svg width="24" height="24" xmlns="http://www.w3.org/2000/svg"><path d="M11.262 13.5H7.765l-3.326 5.995h2.393l-2.26 3.338c-.128.189.111.408.288.265L11.168 18H8.057l3.205-4.5zm4.588-.223l1.3.75-.851 1.474H18v1.495h-1.704l.854 1.478-1.3.75L15 17.75l-.85 1.474-1.3-.75.854-1.479H12V15.5h1.701l-.85-1.473 1.298-.75.851 1.474.85-1.473zM13.512.566a7.596 7.596 0 017.149 5.019 5.804 5.804 0 013.089 5.127 5.789 5.789 0 01-4.023 5.515l-.227.067v-1.574a4.292 4.292 0 002.75-4.008 4.3 4.3 0 00-2.314-3.813l-.195-.095-.303-.138-.101-.317c-.816-2.563-3.157-4.284-5.825-4.284-1.42 0-2.79.5-3.888 1.415l-.216.188-.328.301-.422-.146a3.178 3.178 0 00-1.036-.176 3.22 3.22 0 00-3.007 2.1 3.327 3.327 0 00-.2 1.37l.027.435-.466.209a3.791 3.791 0 00-2.226 3.456 3.775 3.775 0 003.283 3.75l.193.02-.78 1.407A5.285 5.285 0 01.25 11.215a5.299 5.299 0 012.667-4.598c.14-2.489 2.197-4.471 4.705-4.471.369 0 .736.045 1.1.134a7.558 7.558 0 014.79-1.715z" fill="#000" fill-rule="evenodd"/></svg>
